X: 9015
T: Da Auld Swaara Jupie
R: barndance
M: 4/4
K: Gmajor
[M:2/4]|:D|GG (3DB,G,|(3DGD (3B,A,B,|G,2 BA/F/|GG (3DB,G,|(3DGD (3B,A,B,|[G,D]G G:|
|:D|G/F/E/D/ (3CEC|(3B,DB, A,>B,|G,2 BA/F/|G/F/E/D/ (3CEC|(3B,DB, A,>B,|[G,D]G G:|
|:D|G/F/E/D/ Gg|ed/B/ d/e/f/g/|a2 BA/F/|G/F/E/D/ Gg|ed/B/ (3dgd|BG G:|

